packages/core/src/svgs/bnx.svg

<svg width="24" height="24" viewBox="0 0 24 24" fill="none" xmlns="http://www.w3.org/2000/svg">
<g clip-path="url(#clip0_31_7247)">
<path d="M0 0H24V24H0V0Z" fill="url(#paint0_linear_31_7247)"/>
<path d="M10.8857 4.76978L4.77431 10.7955C4.42288 11.1384 4.28145 11.5669 4.28574 11.9998C4.28422 12.4498 4.4597 12.8823 4.77431 13.2041L10.8857 19.2341C11.2329 19.5769 11.67 19.7141 12.1072 19.7141C12.5443 19.7141 12.9815 19.5769 13.3286 19.2298L17.2286 15.3898C16.2257 15.2998 15.8872 15.5184 15.4886 15.7669C15.2272 15.9341 14.9357 16.1184 14.4172 16.2384C14.1557 16.2984 13.9372 16.3369 13.7572 16.3369C13.3157 16.3369 13.0972 16.1869 12.9043 16.0541C12.7543 15.9469 12.6257 15.8569 12.42 15.8569H10.1486C10.5172 15.2912 10.2686 15.1112 10.2686 15.1112C10.2686 15.1112 9.48002 14.9226 9.66431 12.9641C8.05717 11.2112 8.1986 9.10692 8.1986 9.10692C8.1986 9.10692 8.73431 10.8384 11.13 11.7598C11.0272 10.4398 11.3915 9.91692 11.5586 9.6855L11.6186 9.58692L11.7 9.75835C11.9186 10.2384 12.2229 10.9069 13.8172 11.2755C14.3315 10.6326 14.5329 10.4741 14.9615 10.1355L15.0429 10.0712C14.6743 8.8455 14.7386 8.16407 15.0429 7.65835L15.1457 7.9155C15.4886 8.77264 16.0372 10.1526 18.4286 9.79692L13.3286 4.76978C13.1674 4.61193 12.9764 4.48779 12.7666 4.40464C12.5569 4.32149 12.3327 4.28098 12.1072 4.2855C11.67 4.2855 11.2329 4.42264 10.8857 4.76978Z" fill="url(#paint1_linear_31_7247)"/>
<path d="M12.8314 12.8357C12.7457 12.8829 12.66 12.9214 12.5957 12.9643C13.5386 13.7657 14.49 12.2657 14.0614 12C13.6932 12.3356 13.279 12.617 12.8314 12.8357Z" fill="url(#paint2_linear_31_7247)"/>
</g>
<defs>
<linearGradient id="paint0_linear_31_7247" x1="4.46571" y1="4.16143" x2="29.2071" y2="32.58" gradientUnits="userSpaceOnUse">
<stop stop-color="#1A1E21"/>
<stop offset="1" stop-color="#06060A"/>
</linearGradient>
<linearGradient id="paint1_linear_31_7247" x1="11.8629" y1="4.0455" x2="12.1029" y2="20.1984" gradientUnits="userSpaceOnUse">
<stop stop-color="#F15F3E"/>
<stop offset="1" stop-color="#EF2357"/>
</linearGradient>
<linearGradient id="paint2_linear_31_7247" x1="11.8628" y1="4.04571" x2="12.1028" y2="20.1986" gradientUnits="userSpaceOnUse">
<stop stop-color="#F15F3E"/>
<stop offset="1" stop-color="#EF2357"/>
</linearGradient>
<clipPath id="clip0_31_7247">
<rect width="24" height="24" fill="white"/>
</clipPath>
</defs>
</svg>

<svg xmlns="http://www.w3.org/2000/svg" width="24" height="24" fill="none" viewBox="0 0 24 24"><g clip-path="url(#a)"><path fill="url(#b)" d="M0 0h24v24H0z"/><path fill="url(#c)" d="m10.886 4.77-6.112 6.026A1.62 1.62 0 0 0 4.286 12c-.002.45.174.882.488 1.204l6.112 6.03c.347.343.784.48 1.221.48s.875-.137 1.222-.484l3.9-3.84c-1.003-.09-1.342.128-1.74.377a3.1 3.1 0 0 1-1.072.471c-.261.06-.48.099-.66.099-.441 0-.66-.15-.853-.283-.15-.107-.278-.197-.484-.197h-2.271c.368-.566.12-.746.12-.746s-.789-.188-.605-2.147C8.057 11.211 8.2 9.107 8.2 9.107s.535 1.731 2.931 2.653c-.103-1.32.261-1.843.429-2.075l.06-.098.081.171c.219.48.523 1.149 2.117 1.518.515-.643.716-.802 1.144-1.14l.082-.065c-.369-1.226-.304-1.907 0-2.413l.103.257c.343.858.891 2.238 3.283 1.882l-5.1-5.027a1.7 1.7 0 0 0-1.222-.484c-.437 0-.874.137-1.221.484"/><path fill="url(#d)" d="M12.831 12.836c-.085.047-.171.085-.235.128.943.802 1.894-.698 1.465-.964a5.2 5.2 0 0 1-1.23.836"/></g><defs><linearGradient id="b" x1="4.466" x2="29.207" y1="4.161" y2="32.58" gradientUnits="userSpaceOnUse"><stop stop-color="#1A1E21"/><stop offset="1" stop-color="#06060A"/></linearGradient><linearGradient id="c" x1="11.863" x2="12.103" y1="4.045" y2="20.198" gradientUnits="userSpaceOnUse"><stop stop-color="#F15F3E"/><stop offset="1" stop-color="#EF2357"/></linearGradient><linearGradient id="d" x1="11.863" x2="12.103" y1="4.046" y2="20.199" gradientUnits="userSpaceOnUse"><stop stop-color="#F15F3E"/><stop offset="1" stop-color="#EF2357"/></linearGradient><clipPath id="a"><path fill="#fff" d="M0 0h24v24H0z"/></clipPath></defs></svg>
